icons/outline/time-duration-10.svg

<!--
tags: [ten, minutes, interval, timer, period, span, duration, short, brief, quick]
category: System
version: "2.22"
unicode: "fad5"
-->
<svg
  xmlns="http://www.w3.org/2000/svg"
  width="24"
  height="24"
  viewBox="0 0 24 24"
  fill="none"
  stroke="currentColor"
  stroke-width="2"
  stroke-linecap="round"
  stroke-linejoin="round"
>
  <path d="M9 9v6m3 -4v2a2 2 0 1 0 4 0v-2a2 2 0 1 0 -4 0zm-9 1v.01m18 -.01v.01m-9 8.99v.01m-4.5 -16.81v.01m9 15.59v.01m-9 -.01v.01m-3.3 -3.31v.01m15.6 -.01v.01m-15.6 -9.01v.01m15.61 .017a8.994 8.994 0 0 0 -7.81 -4.527" />
</svg>

<!--
tags: [ten, minutes, interval, timer, period, span, duration, short, brief, quick]
category: System
version: "2.22"
unicode: "fad5"
-->
<svg
  xmlns="http://www.w3.org/2000/svg"
  width="24"
  height="24"
  viewBox="0 0 24 24"
  fill="none"
  stroke="currentColor"
  stroke-width="2"
  stroke-linecap="round"
  stroke-linejoin="round"
>
    <path d="M9 9v6M12 11v2a2 2 0 1 0 4 0v-2a2 2 0 1 0 -4 0zM3 12v.01M21 12v.01M12 21v.01M7.5 4.2v.01M16.5 19.8v.01M7.5 19.8v.01M4.2 16.5v.01M19.8 16.5v.01M4.2 7.5v.01M19.81 7.527a8.994 8.994 0 0 0 -7.81 -4.527" />
</svg>
